src/images/single-assets/sUSDS.svg

<svg width="37" height="37" viewBox="0 0 37 37" fill="none" xmlns="http://www.w3.org/2000/svg">
<g clip-path="url(#clip0_5264_5155)">
<path d="M18.4467 36.9715C28.6345 36.9715 36.8934 28.7126 36.8934 18.5248C36.8934 8.33699 28.6345 0.078125 18.4467 0.078125C8.25886 0.078125 0 8.33699 0 18.5248C0 28.7126 8.25886 36.9715 18.4467 36.9715Z" fill="url(#paint0_radial_5264_5155)"/>
<path d="M11.3917 23.3741H8.7666C8.98089 27.4725 12.4096 31.0352 18.4903 31.0352C24.5441 31.0352 28.4013 27.7136 28.4013 23.4277C28.4013 15.2845 16.1062 15.7399 16.1062 11.0254C16.1062 9.71284 17.0973 8.15922 19.401 8.15922C21.9725 8.15922 24.9994 10.1682 25.2137 12.7398H27.812C27.5442 8.5878 23.4993 5.69482 18.3563 5.69482C13.0257 5.69482 9.00769 8.8021 9.00769 13.1951C9.00769 21.5794 21.3028 20.4811 21.3028 25.651C21.3028 27.2582 20.3117 28.5975 17.8205 28.5975C14.7133 28.5975 11.5793 26.4279 11.3917 23.3741ZM13.5882 11.6415C13.5882 18.0167 25.7763 16.7577 25.7763 23.5616C25.7763 25.5974 24.4369 27.3921 22.8297 27.8475C23.3922 27.3118 23.8208 26.1331 23.8208 25.0081C23.8208 18.7132 11.606 19.5704 11.606 13.1148C11.606 10.945 12.9989 9.2039 14.74 8.66816C14.0704 9.47177 13.5882 10.5165 13.5882 11.6415Z" fill="white"/>
</g>
<defs>
<radialGradient id="paint0_radial_5264_5155" cx="0" cy="0" r="1" gradientUnits="userSpaceOnUse" gradientTransform="translate(18.4467 57.5397) rotate(-90) scale(57.4616)">
<stop stop-color="#FFEF79"/>
<stop offset="1" stop-color="#00C2A1"/>
</radialGradient>
<clipPath id="clip0_5264_5155">
<rect width="36.8934" height="37" fill="white"/>
</clipPath>
</defs>
</svg>

<svg xmlns="http://www.w3.org/2000/svg" width="37" height="37" fill="none"><g clip-path="url(#a)"><path fill="url(#b)" d="M18.447 36.972c10.188 0 18.446-8.26 18.446-18.447C36.893 8.337 28.634.078 18.447.078S0 8.337 0 18.525s8.259 18.447 18.447 18.447"/><path fill="#fff" d="M11.392 23.374H8.767c.214 4.099 3.643 7.661 9.723 7.661 6.054 0 9.911-3.321 9.911-7.607 0-8.144-12.295-7.688-12.295-12.403 0-1.312.991-2.866 3.295-2.866 2.572 0 5.598 2.01 5.813 4.58h2.598c-.268-4.151-4.313-7.044-9.456-7.044-5.33 0-9.348 3.107-9.348 7.5 0 8.384 12.295 7.286 12.295 12.456 0 1.607-.991 2.947-3.483 2.947-3.107 0-6.24-2.17-6.428-5.224m2.196-11.732c0 6.375 12.188 5.116 12.188 11.92 0 2.035-1.34 3.83-2.946 4.285.562-.535.99-1.714.99-2.839 0-6.295-12.214-5.438-12.214-11.893 0-2.17 1.393-3.911 3.134-4.447-.67.804-1.152 1.849-1.152 2.974"/></g><defs><radialGradient id="b" cx="0" cy="0" r="1" gradientTransform="rotate(-90 37.993 19.547)scale(57.4616)" gradientUnits="userSpaceOnUse"><stop stop-color="#FFEF79"/><stop offset="1" stop-color="#00C2A1"/></radialGradient><clipPath id="a"><path fill="#fff" d="M0 0h36.893v37H0z"/></clipPath></defs></svg>
